assets/img/braze_icons/mail-02.svg

<svg fill="none" height="24" viewBox="0 0 24 24" width="24" xmlns="http://www.w3.org/2000/svg"><g fill="#801ed7"><path d="m2.06552 8.21149c-.24215-.17093-.36323-.2564-.46646-.27726-.22747-.04598-.46297.07605-.55658.2884-.042486.09637-.042484.24293-.04248.53606v6.48261c-.000012.805-.000022 1.4693.04419 2.0105.02373.2904.3622.4072.57808.2116l5.1942-4.7053c.25305-.2292.37958-.3439.41992-.4755.03538-.1153.02782-.2396-.02126-.3499-.05599-.1257-.19546-.2242-.47441-.4211z"/><path d="m2.69115 19.1938c-.20363.1844-.30544.2767-.34575.4085-.03124.1022-.02189.2528.02177.3504.05631.1258.14917.191.3349.3214.153.1074.31398.2043.48197.2899.48533.2473 1.00204.3459 1.56414.3918.54119.0442 1.20554.0442 2.0105.0442h10.48262c.805 0 1.4693 0 2.0105-.0442.5621-.0459 1.0788-.1445 1.5642-.3918.168-.0856.3289-.1826.4819-.2899.1858-.1304.2786-.1956.3349-.3214.0437-.0976.0531-.2482.0218-.3504-.0403-.1318-.1421-.2241-.3457-.4085l-6.1197-5.5438c-.117-.1059-.1754-.1589-.2387-.1899-.1199-.0588-.2583-.0672-.3844-.0233-.0666.0231-.1311.0687-.2599.1597-.5473.3875-1.0279.7278-1.5759.8653-.4794.1203-.981.1203-1.4604 0-.5481-.1375-1.0286-.4778-1.5759-.8653-.12895-.0911-.19343-.1366-.26006-.1598-.12606-.0438-.2644-.0354-.38424.0233-.06334.031-.12185.084-.23885.19z"/><path d="m22.3777 17.4634c.2159.1956.5544.0787.5781-.2116.0442-.5412.0442-1.2055.0442-2.0105v-6.48262c0-.29302 0-.43952-.0424-.53586-.0936-.21242-.3292-.33449-.5567-.28846-.1032.02087-.2243.1063-.4663.27717l-4.6752 3.30017c-.279.1969-.4185.2953-.4744.4211-.0491.1102-.0567.2345-.0213.3499.0403.1316.1669.2462.4199.4755z"/><path d="m22.2796 4.70729c.1092.15589.1638.23383.1806.35239.0131.09239-.0094.22122-.053.30373-.0559.10588-.1504.17263-.3396.30612l-8.7988 6.21097c-.7327.5172-.8881.607-1.0253.6414-.1598.0401-.327.0401-.4868 0-.1372-.0344-.2926-.1242-1.0253-.6414l-8.79899-6.21105c-.18912-.13349-.28368-.20024-.33961-.30612-.04359-.08251-.06604-.21134-.05294-.30374.01681-.11856.0714-.1965.18058-.35239.37428-.53441.88356-.97568 1.4636-1.27122.48533-.2473 1.00204-.34586 1.56414-.39179.54119-.04421 1.20554-.0442 2.01051-.04419h10.48261c.805-.00001 1.4693-.00002 2.0105.04419.5621.04593 1.0788.14449 1.5642.39179.58.29556 1.0893.73686 1.4636 1.27131z"/></g></svg>

<svg width="24" height="24" viewBox="0 0 24 24" fill="none" xmlns="http://www.w3.org/2000/svg">
<path d="M2.06552 8.21149C1.82337 8.04056 1.70229 7.95509 1.59906 7.93423C1.37159 7.88825 1.13609 8.01028 1.04248 8.22263C0.999994 8.319 0.999996 8.46556 1 8.75869V15.2413C0.999988 16.0463 0.999978 16.7106 1.04419 17.2518C1.06792 17.5422 1.40639 17.659 1.62227 17.4634L6.81647 12.7581C7.06952 12.5289 7.19605 12.4142 7.23639 12.2826C7.27177 12.1673 7.26421 12.043 7.21513 11.9327C7.15914 11.807 7.01967 11.7085 6.74072 11.5116L2.06552 8.21149Z" fill="#801ED7"/>
<path d="M2.69115 19.1938C2.48752 19.3782 2.38571 19.4705 2.3454 19.6023C2.31416 19.7045 2.32351 19.8551 2.36717 19.9527C2.42348 20.0785 2.51634 20.1437 2.70207 20.2741C2.85507 20.3815 3.01605 20.4784 3.18404 20.564C3.66937 20.8113 4.18608 20.9099 4.74818 20.9558C5.28937 21 5.95372 21 6.75868 21H17.2413C18.0463 21 18.7106 21 19.2518 20.9558C19.8139 20.9099 20.3306 20.8113 20.816 20.564C20.984 20.4784 21.1449 20.3814 21.2979 20.2741C21.4837 20.1437 21.5765 20.0785 21.6328 19.9527C21.6765 19.8551 21.6859 19.7045 21.6546 19.6023C21.6143 19.4705 21.5125 19.3782 21.3089 19.1938L15.1892 13.65C15.0722 13.5441 15.0138 13.4911 14.9505 13.4601C14.8306 13.4013 14.6922 13.3929 14.5661 13.4368C14.4995 13.4599 14.435 13.5055 14.3062 13.5965C13.7589 13.984 13.2783 14.3243 12.7303 14.4618C12.2509 14.5821 11.7493 14.5821 11.2699 14.4618C10.7218 14.3243 10.2413 13.984 9.694 13.5965C9.56505 13.5054 9.50057 13.4599 9.43394 13.4367C9.30788 13.3929 9.16954 13.4013 9.0497 13.46C8.98636 13.491 8.92785 13.544 8.81085 13.65L2.69115 19.1938Z" fill="#801ED7"/>
<path d="M22.3777 17.4634C22.5936 17.659 22.9321 17.5421 22.9558 17.2518C23 16.7106 23 16.0463 23 15.2413V8.75868C23 8.46566 23 8.31916 22.9576 8.22282C22.864 8.0104 22.6284 7.88833 22.4009 7.93436C22.2977 7.95523 22.1766 8.04066 21.9346 8.21153L17.2594 11.5117C16.9804 11.7086 16.8409 11.807 16.785 11.9328C16.7359 12.043 16.7283 12.1673 16.7637 12.2827C16.804 12.4143 16.9306 12.5289 17.1836 12.7582L22.3777 17.4634Z" fill="#801ED7"/>
<path d="M22.2796 4.70729C22.3888 4.86318 22.4434 4.94112 22.4602 5.05968C22.4733 5.15207 22.4508 5.2809 22.4072 5.36341C22.3513 5.46929 22.2568 5.53604 22.0676 5.66953L13.2688 11.8805C12.5361 12.3977 12.3807 12.4875 12.2435 12.5219C12.0837 12.562 11.9165 12.562 11.7567 12.5219C11.6195 12.4875 11.4641 12.3977 10.7314 11.8805L1.93241 5.66945C1.74329 5.53596 1.64873 5.46921 1.5928 5.36333C1.54921 5.28082 1.52676 5.15199 1.53986 5.05959C1.55667 4.94103 1.61126 4.86309 1.72044 4.7072C2.09472 4.17279 2.604 3.73152 3.18404 3.43598C3.66937 3.18868 4.18608 3.09012 4.74818 3.04419C5.28937 2.99998 5.95372 2.99999 6.75869 3H17.2413C18.0463 2.99999 18.7106 2.99998 19.2518 3.04419C19.8139 3.09012 20.3306 3.18868 20.816 3.43598C21.396 3.73154 21.9053 4.17284 22.2796 4.70729Z" fill="#801ED7"/>
</svg>
